X: 105
T:Humours of Lissadell, The
M:C|
L:1/8
R:Reel
K:EDor
f[|:eB~B2 eBdB|AF~F2 EDB,A,|B,E~E2 B,EFE|FB~B2 FAdf|!
eB~B2 eBdB|AFFD EDB,A,|B,EED EFGA|(3Bcd ed e3f:|!
|:eB~B2 A2FA|d2fd edef|df~f2 dfbf|afdf edBA|!
defd BcdB|AF~F2 ABde|faef dfbf|afdf e3f:|]!
